;FLAVOR:Marlin
;TIME:675
;Filament used: 0.465748m
;Layer height: 0.2
;MINX:96.126
;MINY:20.443
;MINZ:0.2
;MAXX:146.863
;MAXY:77.418
;MAXZ:5
;TARGET_MACHINE.NAME:Creality Ender-3 S1
;Generated with Cura_SteamEngine 5.7.2
M104 S200
M105
M109 S200
M82 ;absolute extrusion mode
; Ender 3 S1 Start G-code
; M413 S0 ; Disable power loss recovery
G92 E0 ; Reset Extruder

; Prep surfaces before auto home for better accuracy
M140 S60
M104 S200

G28 ; Home all axes
G1 Z10.0 F3000 ; Move Z Axis up little to prevent scratching of Heat Bed
G1 X0 Y0

M190 S60
M109 S200

G1 X0.1 Y20 Z0.3 F5000.0 ; Move to start position
G1 X0.1 Y200.0 Z0.3 F1500.0 E15 ; Draw the first line
G1 X0.4 Y200.0 Z0.3 F5000.0 ; Move to side a little
G1 X0.4 Y20 Z0.3 F1500.0 E30 ; Draw the second line
G92 E0 ; Reset Extruder
G1 Z2.0 F3000 ; Move Z Axis up little to prevent scratching of Heat Bed
G1 X5 Y20 Z0.3 F5000.0 ; Move over to prevent blob squish

G92 E0
G92 E0
G1 F2400 E-0.8
;LAYER_COUNT:25
;LAYER:0
M107
M204 S2000
G0 F7500 X98.137 Y38.42 Z0.2
M204 S500
;TYPE:SKIRT
G1 F2400 E0
G1 F1500 X98.537 Y37.463 E0.0345
G1 X98.951 Y36.561 E0.06751
G1 X99.161 Y36.131 E0.08342
G1 X99.496 Y35.488 E0.10754
G1 X99.771 Y34.986 E0.12658
G1 X100.198 Y34.253 E0.15479
G1 X100.611 Y33.585 E0.18091
G1 X101.05 Y32.919 E0.20744
G1 X101.565 Y32.186 E0.23724
G1 X102.016 Y31.582 E0.26231
G1 X102.596 Y30.851 E0.29335
G1 X103.278 Y30.052 E0.32829
G1 X103.651 Y29.644 E0.34667
G1 X104.54 Y28.719 E0.38934
G1 X104.936 Y28.33 E0.40781
G1 X105.65 Y27.673 E0.44008
G1 X106.359 Y27.061 E0.47123
G1 X106.735 Y26.752 E0.48742
G1 X107.26 Y26.339 E0.50963
G1 X107.926 Y25.841 E0.53729
G1 X109.048 Y25.072 E0.58253
G1 X109.451 Y24.812 E0.59849
G1 X110.196 Y24.361 E0.62745
G1 X110.886 Y23.967 E0.65388
G1 X111.37 Y23.706 E0.67217
G1 X112.051 Y23.361 E0.69756
G1 X112.837 Y22.991 E0.72645
G1 X113.577 Y22.665 E0.75335
G1 X114.61 Y22.254 E0.79033
G1 X115.326 Y21.998 E0.81562
G1 X116.114 Y21.744 E0.84315
G1 X116.86 Y21.522 E0.86904
G1 X117.408 Y21.374 E0.88792
G1 X118.685 Y21.067 E0.9316
G1 X119.294 Y20.941 E0.95229
G1 X120.122 Y20.797 E0.98024
G1 X120.966 Y20.675 E1.0086
G1 X121.708 Y20.59 E1.03344
G1 X122.306 Y20.535 E1.05342
G1 X123.078 Y20.482 E1.07915
G1 X124.018 Y20.447 E1.11044
G1 X124.565 Y20.443 E1.12863
G1 X125.668 Y20.463 E1.16533
G1 X126.235 Y20.489 E1.18421
G1 X127.516 Y20.59 E1.22694
G1 X128.281 Y20.678 E1.25256
G1 X128.768 Y20.744 E1.2689
G1 X129.561 Y20.873 E1.29562
G1 X130.342 Y21.025 E1.32209
G1 X131.415 Y21.267 E1.35867
G1 X131.915 Y21.395 E1.37584
G1 X132.912 Y21.677 E1.4103
G1 X133.451 Y21.844 E1.42907
G1 X134.648 Y22.26 E1.47122
G1 X135.233 Y22.492 E1.49215
G1 X136.266 Y22.936 E1.52954
G1 X137.183 Y23.368 E1.56326
G1 X137.691 Y23.622 E1.58215
G1 X138.455 Y24.031 E1.61097
G1 X138.963 Y24.321 E1.63043
G1 X139.927 Y24.909 E1.66798
G1 X140.375 Y25.196 E1.68568
G1 X141.106 Y25.699 E1.71519
G1 X141.856 Y26.249 E1.74613
G1 X142.433 Y26.701 E1.7705
G1 X142.845 Y27.038 E1.78821
G1 X143.568 Y27.69 E1.82059
G1 X144.231 Y28.402 E1.85295
G1 X144.83 Y29.172 E1.88539
G1 X145.321 Y29.93 E1.91543
G1 X145.81 Y30.853 E1.95017
G1 X146.184 Y31.752 E1.98256
G1 X146.477 Y32.68 E2.01493
G1 X146.689 Y33.63 E2.0473
G1 X146.808 Y34.525 E2.07733
G1 X146.853 Y35.357 E2.10504
G1 X146.862 Y35.938 E2.12437
G1 X146.863 Y38.542 E2.21098
G1 X146.852 Y39.414 E2.23998
G1 X146.816 Y40.142 E2.26423
G1 X146.604 Y42.667 E2.3485
G1 X146.466 Y45.154 E2.43135
G1 X146.395 Y47.694 E2.51586
G1 X146.397 Y50.206 E2.59941
G1 X146.47 Y52.753 E2.68416
G1 X146.611 Y55.216 E2.76622
G1 X146.817 Y57.742 E2.85051
G1 X146.848 Y58.292 E2.86883
G1 X146.863 Y58.949 E2.89069
G1 X146.862 Y61.746 E2.98372
G1 X146.85 Y62.516 E3.00933
G1 X146.792 Y63.488 E3.04172
G1 X146.646 Y64.452 E3.07415
G1 X146.416 Y65.398 E3.10653
G1 X146.104 Y66.32 E3.1389
G1 X145.711 Y67.212 E3.17132
G1 X145.259 Y68.034 E3.20252
G1 X144.697 Y68.872 E3.23608
G1 X144.131 Y69.575 E3.2661
G1 X143.411 Y70.324 E3.30065
G1 X142.843 Y70.825 E3.32584
G1 X142.204 Y71.342 E3.35318
G1 X141.516 Y71.863 E3.38189
G1 X140.878 Y72.321 E3.40801
G1 X140.243 Y72.749 E3.43348
G1 X139.7 Y73.096 E3.45491
G1 X139.047 Y73.492 E3.48031
G1 X138.3 Y73.915 E3.50886
G1 X137.643 Y74.266 E3.53364
G1 X136.857 Y74.653 E3.56278
G1 X136.127 Y74.989 E3.58951
G1 X135.359 Y75.315 E3.61726
G1 X134.647 Y75.596 E3.64272
G1 X133.827 Y75.888 E3.67167
G1 X133.104 Y76.124 E3.69696
G1 X131.937 Y76.462 E3.73737
G1 X131.18 Y76.651 E3.76332
G1 X130.42 Y76.821 E3.78922
G1 X129.949 Y76.915 E3.8052
G1 X129.041 Y77.072 E3.83585
G1 X128.277 Y77.182 E3.86152
G1 X127.823 Y77.236 E3.87673
G1 X126.861 Y77.329 E3.90887
G1 X126.371 Y77.365 E3.92521
G1 X125.597 Y77.398 E3.95098
G1 X124.523 Y77.418 E3.98671
G1 X123.951 Y77.414 E4.00573
G1 X123.215 Y77.387 E4.03023
G1 X122.516 Y77.345 E4.05352
G1 X121.595 Y77.26 E4.08428
G1 X121.145 Y77.207 E4.09935
G1 X120.249 Y77.081 E4.12945
G1 X119.304 Y76.921 E4.16133
G1 X118.237 Y76.698 E4.19758
G1 X117.381 Y76.485 E4.22692
G1 X116.642 Y76.28 E4.25243
G1 X116.13 Y76.126 E4.27021
G1 X115.253 Y75.837 E4.30092
G1 X114.806 Y75.676 E4.31672
G1 X114.001 Y75.366 E4.34542
G1 X113.535 Y75.173 E4.36219
G1 X112.628 Y74.773 E4.39516
G1 X112.166 Y74.557 E4.41212
G1 X111.327 Y74.13 E4.44344
G1 X110.684 Y73.781 E4.46777
G1 X110.157 Y73.479 E4.48797
G1 X109.507 Y73.083 E4.51329
G1 X108.462 Y72.397 E4.55486
G1 X107.868 Y71.976 E4.57908
G1 X107.224 Y71.494 E4.60583
G1 X106.577 Y70.981 E4.6333
G1 X105.91 Y70.419 E4.66231
G1 X105.353 Y69.92 E4.68718
G1 X104.949 Y69.543 E4.70556
G1 X104.377 Y68.981 E4.73223
G1 X103.807 Y68.389 E4.75956
G1 X103.321 Y67.857 E4.78353
G1 X102.713 Y67.151 E4.81452
G1 X102.289 Y66.627 E4.83694
G1 X101.585 Y65.697 E4.87573
G1 X101.314 Y65.315 E4.89131
G1 X100.596 Y64.253 E4.93395
G1 X100.201 Y63.615 E4.9589
G1 X99.767 Y62.865 E4.98772
G1 X99.374 Y62.143 E5.01507
G1 X99.129 Y61.663 E5.03299
G1 X98.781 Y60.941 E5.05965
G1 X98.458 Y60.22 E5.08592
G1 X98.059 Y59.244 E5.12099
G1 X97.832 Y58.642 E5.14239
G1 X97.576 Y57.903 E5.16841
G1 X97.325 Y57.113 E5.19598
G1 X97.114 Y56.373 E5.22157
G1 X96.911 Y55.571 E5.24908
G1 X96.735 Y54.792 E5.27565
G1 X96.562 Y53.894 E5.30606
G1 X96.44 Y53.142 E5.3314
G1 X96.327 Y52.311 E5.3593
G1 X96.242 Y51.503 E5.38632
G1 X96.178 Y50.669 E5.41414
G1 X96.134 Y49.627 E5.44883
G1 X96.126 Y48.757 E5.47776
G1 X96.141 Y47.99 E5.50328
G1 X96.183 Y47.113 E5.53248
G1 X96.244 Y46.335 E5.55844
G1 X96.3 Y45.778 E5.57706
G1 X96.395 Y45.028 E5.6022
G1 X96.525 Y44.184 E5.6306
G1 X96.667 Y43.404 E5.65697
G1 X96.919 Y42.258 E5.696
G1 X97.052 Y41.733 E5.71401
G1 X97.303 Y40.832 E5.74512
G1 X97.445 Y40.368 E5.76126
G1 X97.855 Y39.154 E5.80388
G1 X98.137 Y38.42 E5.83003
M204 S2000
G0 F7500 X98.506 Y38.574
M204 S500
G1 F1500 X98.901 Y37.63 E5.86407
G1 X99.315 Y36.728 E5.89708
G1 X99.516 Y36.316 E5.91233
G1 X99.847 Y35.68 E5.93617
G1 X100.117 Y35.187 E5.95487
G1 X100.538 Y34.463 E5.98272
G1 X100.945 Y33.805 E6.00846
G1 X101.377 Y33.149 E6.03458
G1 X101.886 Y32.425 E6.06402
G1 X102.329 Y31.831 E6.08866
G1 X102.9 Y31.111 E6.11923
G1 X103.573 Y30.322 E6.15372
G1 X103.939 Y29.921 E6.17178
G1 X104.82 Y29.004 E6.21407
G1 X105.207 Y28.624 E6.23211
G1 X105.911 Y27.976 E6.26393
G1 X106.613 Y27.37 E6.29478
G1 X106.982 Y27.066 E6.31068
G1 X107.499 Y26.659 E6.33257
G1 X108.152 Y26.171 E6.35968
G1 X109.265 Y25.408 E6.40456
G1 X109.659 Y25.154 E6.42015
G1 X110.394 Y24.708 E6.44875
G1 X111.076 Y24.319 E6.47486
G1 X111.551 Y24.063 E6.49281
G1 X112.221 Y23.723 E6.5178
G1 X112.998 Y23.357 E6.54636
G1 X113.725 Y23.037 E6.57278
G1 X114.745 Y22.631 E6.6093
G1 X115.449 Y22.379 E6.63417
G1 X116.228 Y22.127 E6.6614
G1 X116.964 Y21.908 E6.68694
G1 X117.502 Y21.763 E6.70547
G1 X118.766 Y21.459 E6.74871
G1 X119.363 Y21.335 E6.76899
G1 X120.179 Y21.193 E6.79654
G1 X121.012 Y21.072 E6.82454
G1 X121.745 Y20.988 E6.84907
G1 X122.333 Y20.934 E6.86871
G1 X123.093 Y20.882 E6.89405
G1 X124.021 Y20.847 E6.92494
G1 X124.558 Y20.843 E6.9428
G1 X125.65 Y20.863 E6.97913
G1 X126.204 Y20.888 E6.99757
G1 X127.47 Y20.987 E7.03981
G1 X128.227 Y21.074 E7.06515
G1 X128.704 Y21.139 E7.08116
G1 X129.485 Y21.266 E7.10748
G1 X130.254 Y21.415 E7.13353
G1 X131.316 Y21.655 E7.16974
G1 X131.806 Y21.78 E7.18656
G1 X132.794 Y22.059 E7.22071
G1 X133.32 Y22.222 E7.23903
G1 X134.501 Y22.632 E7.28061
G1 X135.075 Y22.859 E7.30114
G1 X136.096 Y23.298 E7.3381
G1 X137.004 Y23.725 E7.37147
G1 X137.502 Y23.975 E7.39001
G1 X138.266 Y24.384 E7.41883
G1 X138.755 Y24.663 E7.43756
G1 X139.711 Y25.245 E7.47478
G1 X140.148 Y25.526 E7.49206
G1 X140.869 Y26.022 E7.52117
G1 X141.619 Y26.572 E7.5521
G1 X142.18 Y27.01 E7.57577
G1 X142.578 Y27.336 E7.59289
G1 X143.276 Y27.963 E7.62409
G1 X143.916 Y28.648 E7.65527
G1 X144.494 Y29.389 E7.68653
G1 X144.985 Y30.147 E7.71657
G1 X145.441 Y31.007 E7.74894
G1 X145.803 Y31.873 E7.78016
G1 X146.087 Y32.767 E7.81136
G1 X146.292 Y33.683 E7.84258
G1 X146.411 Y34.578 E7.87261
G1 X146.453 Y35.363 E7.89876
G1 X146.462 Y35.938 E7.91788
G1 X146.463 Y38.537 E8.00433
G1 X146.452 Y39.394 E8.03283
G1 X146.417 Y40.109 E8.05664
G1 X146.206 Y42.634 E8.14092
G1 X146.066 Y45.143 E8.2245
G1 X145.995 Y47.683 E8.30901
G1 X145.997 Y50.206 E8.39293
G1 X146.07 Y52.764 E8.47804
G1 X146.212 Y55.249 E8.56083
G1 X146.418 Y57.764 E8.64476
G1 X146.448 Y58.301 E8.66264
G1 X146.463 Y58.949 E8.6842
G1 X146.462 Y61.74 E8.77703
G1 X146.451 Y62.493 E8.80208
G1 X146.396 Y63.429 E8.83326
G1 X146.257 Y64.358 E8.86451
G1 X146.037 Y65.27 E8.89571
G1 X145.738 Y66.159 E8.92691
G1 X145.36 Y67.019 E8.95815
G1 X144.908 Y67.841 E8.98935
G1 X144.385 Y68.621 E9.02059
G1 X143.819 Y69.324 E9.0506
G1 X143.146 Y70.024 E9.0829
G1 X142.591 Y70.514 E9.10753
G1 X141.963 Y71.023 E9.13441
G1 X141.283 Y71.538 E9.16278
G1 X140.655 Y71.989 E9.1885
G1 X140.027 Y72.412 E9.21368
G1 X139.493 Y72.754 E9.23477
G1 X138.85 Y73.144 E9.25979
G1 X138.112 Y73.562 E9.288
G1 X137.466 Y73.907 E9.31235
G1 X136.69 Y74.29 E9.34114
G1 X135.971 Y74.621 E9.36746
G1 X135.212 Y74.943 E9.39489
G1 X134.512 Y75.219 E9.41991
G1 X133.703 Y75.508 E9.44848
G1 X132.993 Y75.74 E9.47333
G1 X131.84 Y76.074 E9.51325
G1 X131.093 Y76.261 E9.53887
G1 X130.342 Y76.429 E9.56446
G1 X129.881 Y76.521 E9.5801
G1 X128.984 Y76.676 E9.61037
G1 X128.23 Y76.785 E9.63571
G1 X127.785 Y76.838 E9.65062
G1 X126.832 Y76.93 E9.68246
G1 X126.354 Y76.965 E9.6984
G1 X125.589 Y76.998 E9.72387
G1 X124.526 Y77.018 E9.75923
G1 X123.965 Y77.014 E9.77789
G1 X123.239 Y76.988 E9.80205
G1 X122.553 Y76.947 E9.82491
G1 X121.642 Y76.863 E9.85534
G1 X121.201 Y76.811 E9.87011
G1 X120.316 Y76.687 E9.89983
G1 X119.386 Y76.529 E9.93121
G1 X118.319 Y76.306 E9.96746
G1 X117.488 Y76.1 E9.99594
G1 X116.757 Y75.897 E10.02117
G1 X116.255 Y75.746 E10.03861
G1 X115.388 Y75.46 E10.06897
G1 X114.95 Y75.303 E10.08445
G1 X114.154 Y74.997 E10.11281
G1 X113.696 Y74.807 E10.1293
G1 X112.798 Y74.411 E10.16195
G1 X112.347 Y74.2 E10.17851
G1 X111.518 Y73.779 E10.20943
G1 X110.883 Y73.434 E10.23347
G1 X110.365 Y73.137 E10.25333
G1 X109.727 Y72.749 E10.27816
G1 X108.693 Y72.07 E10.31931
G1 X108.108 Y71.656 E10.34314
G1 X107.473 Y71.181 E10.36952
G1 X106.835 Y70.675 E10.3966
G1 X106.177 Y70.121 E10.42521
G1 X105.626 Y69.627 E10.44982
G1 X105.229 Y69.257 E10.46787
G1 X104.665 Y68.704 E10.49415
G1 X104.102 Y68.119 E10.52115
G1 X103.624 Y67.596 E10.54472
G1 X103.024 Y66.899 E10.5753
G1 X102.608 Y66.386 E10.59727
G1 X101.911 Y65.465 E10.63569
G1 X101.645 Y65.091 E10.65095
G1 X100.936 Y64.042 E10.69306
G1 X100.547 Y63.414 E10.71763
G1 X100.118 Y62.674 E10.74608
G1 X99.73 Y61.961 E10.77308
G1 X99.489 Y61.489 E10.79071
G1 X99.146 Y60.777 E10.81699
G1 X98.828 Y60.069 E10.84281
G1 X98.433 Y59.103 E10.87752
G1 X98.21 Y58.511 E10.89856
G1 X97.957 Y57.782 E10.92423
G1 X97.71 Y57.003 E10.95141
G1 X97.502 Y56.274 E10.97662
G1 X97.301 Y55.483 E11.00377
G1 X97.128 Y54.716 E11.02992
G1 X96.957 Y53.83 E11.05993
G1 X96.836 Y53.088 E11.08493
G1 X96.725 Y52.269 E11.11242
G1 X96.641 Y51.472 E11.13908
G1 X96.578 Y50.652 E11.16643
G1 X96.534 Y49.623 E11.20069
G1 X96.526 Y48.765 E11.22923
G1 X96.541 Y48.009 E11.25438
G1 X96.582 Y47.144 E11.28318
G1 X96.642 Y46.375 E11.30883
G1 X96.697 Y45.828 E11.32712
G1 X96.79 Y45.089 E11.35189
G1 X96.918 Y44.256 E11.37992
G1 X97.058 Y43.49 E11.40582
G1 X97.307 Y42.356 E11.44444
G1 X97.437 Y41.841 E11.4621
G1 X97.686 Y40.949 E11.49291
G1 X97.825 Y40.493 E11.50876
G1 X98.084 Y39.707 E11.53629
G1 X98.229 Y39.297 E11.55075
G1 X98.506 Y38.574 E11.5765
M204 S2000
G0 F7500 X98.875 Y38.728
M204 S500
G1 F1500 X99.264 Y37.797 E11.61006
G1 X99.675 Y36.903 E11.64279
G1 X99.871 Y36.501 E11.65766
G1 X100.198 Y35.872 E11.68124
G1 X100.463 Y35.388 E11.69959
G1 X100.878 Y34.673 E11.72709
G1 X101.279 Y34.025 E11.75244
G1 X101.704 Y33.379 E11.77816
G1 X102.207 Y32.664 E11.80723
G1 X102.643 Y32.079 E11.8315
G1 X103.204 Y31.371 E11.86154
G1 X103.869 Y30.591 E11.89563
G1 X104.227 Y30.198 E11.91332
G1 X105.101 Y29.289 E11.95526
G1 X105.478 Y28.918 E11.97285
G1 X106.172 Y28.279 E12.00423
G1 X106.868 Y27.678 E12.03481
G1 X107.229 Y27.38 E12.05038
G1 X107.739 Y26.979 E12.07196
G1 X108.378 Y26.501 E12.0985
G1 X109.482 Y25.744 E12.14302
G1 X109.867 Y25.496 E12.15826
G1 X110.592 Y25.055 E12.18648
G1 X111.265 Y24.671 E12.21225
G1 X111.732 Y24.42 E12.22989
G1 X112.392 Y24.085 E12.2545
G1 X113.159 Y23.723 E12.28271
G1 X113.873 Y23.409 E12.30865
G1 X114.88 Y23.008 E12.34471
G1 X115.584 Y22.756 E12.36958
G1 X116.342 Y22.51 E12.39608
G1 X117.068 Y22.294 E12.42127
G1 X117.595 Y22.152 E12.43943
G1 X118.848 Y21.851 E12.48229
G1 X119.432 Y21.729 E12.50213
G1 X120.237 Y21.589 E12.52931
G1 X121.058 Y21.469 E12.5569
G1 X121.781 Y21.386 E12.58111
G1 X122.36 Y21.333 E12.60045
G1 X123.108 Y21.282 E12.62538
G1 X124.024 Y21.247 E12.65587
G1 X124.551 Y21.243 E12.6734
G1 X125.632 Y21.263 E12.70936
G1 X126.173 Y21.287 E12.72737
G1 X127.424 Y21.384 E12.76911
G1 X128.173 Y21.47 E12.79418
G1 X128.64 Y21.534 E12.80986
G1 X129.409 Y21.659 E12.83577
G1 X130.166 Y21.805 E12.86141
G1 X131.217 Y22.042 E12.89725
G1 X131.697 Y22.165 E12.91373
G1 X132.676 Y22.441 E12.94756
G1 X133.189 Y22.6 E12.96542
G1 X134.354 Y23.004 E13.00643
G1 X134.917 Y23.226 E13.02656
G1 X135.926 Y23.66 E13.0631
G1 X136.825 Y24.082 E13.09613
G1 X137.313 Y24.327 E13.11429
G1 X138.068 Y24.732 E13.14278
G1 X138.547 Y25.005 E13.16112
G1 X139.494 Y25.581 E13.19799
G1 X139.921 Y25.856 E13.21488
G1 X140.632 Y26.345 E13.24358
G1 X141.382 Y26.895 E13.27452
G1 X141.927 Y27.32 E13.2975
G1 X142.311 Y27.634 E13.314
G1 X142.984 Y28.236 E13.34403
G1 X143.601 Y28.895 E13.37406
G1 X144.158 Y29.606 E13.4041
G1 X144.649 Y30.364 E13.43414
G1 X145.072 Y31.162 E13.46418
G1 X145.422 Y31.995 E13.49423
G1 X145.697 Y32.855 E13.52426
G1 X145.895 Y33.736 E13.55429
G1 X146.014 Y34.631 E13.58432
G1 X146.053 Y35.369 E13.6089
G1 X146.062 Y35.938 E13.62783
G1 X146.063 Y38.532 E13.71411
G1 X146.052 Y39.375 E13.74215
G1 X146.018 Y40.076 E13.76549
G1 X145.808 Y42.601 E13.84976
G1 X145.666 Y45.132 E13.93408
G1 X145.595 Y47.672 E14.01859
G1 X145.597 Y50.206 E14.10287
G1 X145.67 Y52.775 E14.18835
G1 X145.813 Y55.282 E14.27187
G1 X146.019 Y57.786 E14.35543
G1 X146.048 Y58.31 E14.37289
G1 X146.063 Y58.949 E14.39415
G1 X146.062 Y61.735 E14.48681
G1 X146.052 Y62.47 E14.51126
G1 X146 Y63.371 E14.54128
G1 X145.868 Y64.265 E14.57133
G1 X145.658 Y65.143 E14.60136
G1 X145.371 Y65.999 E14.63139
G1 X145.009 Y66.827 E14.66144
G1 X144.575 Y67.619 E14.69148
G1 X144.073 Y68.37 E14.72153
G1 X143.507 Y69.073 E14.75155
G1 X142.881 Y69.724 E14.78158
G1 X142.339 Y70.203 E14.80564
G1 X141.721 Y70.704 E14.8321
G1 X141.05 Y71.213 E14.86011
